rospo-dark/16x16/actions/code-class.svg

<svg height="16" viewBox="0 0 16 16" width="16" xmlns="http://www.w3.org/2000/svg"><path d="m2 1.0039062v6h1v2h-2v5.9999998h6v-5.9999998h-2v-2h5v-2h1v4.9999998h-2v5h6v-5h-2v-6.9999998h-3v-2z" fill="#d3dae3"/></svg>

<?xml version="1.0" encoding="UTF-8" standalone="no"?>
<svg xmlns="http://www.w3.org/2000/svg" width="22" height="22" viewBox="0 0 22 22">
 <defs>
  <style type="text/css" id="current-color-scheme">
   .ColorScheme-Text { color:#d3dae3; } .ColorScheme-Highlight { color:#5294e2; }
  </style>
 </defs>
 <path style="fill:currentColor;opacity:1" class="ColorScheme-Text" transform="translate(3 3)" d="M 2 1.0039062 L 2 7.0039062 L 3 7.0039062 L 3 9.0039062 L 1 9.0039062 L 1 15.003906 L 7 15.003906 L 7 9.0039062 L 5 9.0039062 L 5 7.0039062 L 10 7.0039062 L 10 5.0039062 L 11 5.0039062 L 11 10.003906 L 9 10.003906 L 9 15.003906 L 15 15.003906 L 15 10.003906 L 13 10.003906 L 13 3.0039062 L 10 3.0039062 L 10 1.0039062 L 2 1.0039062 z"/>
</svg>
